X:1
T:The White Cockade
C:Anonymous; arr. T. S. Macdonald
M:C
L:1/4
K:G
%%staves { 1 2 }
V:1
G/A/ | B B B A/G/ | B B B g/e/ | d B c/B/A/G/ | F A A G/A/ |
B B c/B/A/G/ | B d g > a | b/a/g/f/ e/f/g/e/ | d B B :|
|: B/c/ | d B g B | d d d > e | d B g f/g/ | a A A G/A/ |
B B c/B/A/G/ | B d g > a | b/a/g/f/ e/f/g/e/ | d B B :|]
V:2 clef=treble
L:1/4
z | "0"G, G, G, "0"D | "0"G, G, G, "0"D | "0"D D "1"E "2"F | "0"D D D z |
"0"G, G, G,2 | "0"G, G, G,2 | "2"B,2 "3"C2 | "0"D D D :|
|: z | "0"G, G, G, "0"D | "0"D D D2 | "0"G, G, G, "0"D | "0"A A A2 |
"0"G, G, G,2 | "0"G, G, G,2 | "2"B,2 "3"C2 | "0"D D D :|]

